X: 10
T:King George the IVth
R:Strathspey
C:Captain Daniel Menzies
B:Skye Book
M:4/4
L:1/8
Q:1/4=150
K:G
A|A,<A,A,>B, C>B,A,>A|A,<A,A,>C B,>A,G,>B,|A,A,A,>B, C>DE>C|
B,>DG>E D/2C/2B,/2A,/2 G,:|
B|c>eA>e c>e d/2c/2B/2A/2|c>eA>e d/2c/2B/2A/2 G>B|
c>eA>e c>de>f|ga ge d/2c/2B/2A/2G2|
c>eA>e c>e d/2c/2B/2A/2|c>eA>e d/2c/2B/2A/2G2|
B<cA<B c<dA<F|A<GE<D C<B,A,<G,|]
